X: 15
T: Missa Ave Maria / Gloria
N: Derived from Rue1004b-Missa_Ave_Maria-Gloria.krn
C: Pierre de la Rue
%%abc-version 2.0
%%abcx-abcm2ps-target-version 5.9.1 (29 Sep 2008)
%%abc-creator hum2abc beta
%%abcx-conversion-date 2019/02/17 08:01:09
%%abc-edited-by Jesse Rodin
%%abc-edited-by Chris Gage 12-02-2012
%%abcx-initial-encoding-date 2013/05/24/
%%humdrum-veritas 3177135668
%%humdrum-veritas-data 2607593940
%%linebreak <none>
%%barnumbers 0
L: 1/4
M: 4/2
Q: 1/2=120
%%staves [1 2 3 4]
V: 1 clef=treble
V: 2 clef=treble-8
V: 3 clef=treble-8
V: 4 clef=bass
K: C
[V:1] z8 | 
[V:2] c4c4 | 
[V:3] z8 | 
[V:4] z8 | 
[V:1] z8 | 
[V:2] G2G2A4 | 
[V:3] z8 | 
[V:4] z8 | 
[V:1] c4c4 | 
[V:2] z2A2c3d | 
[V:3] z8 | 
[V:4] z8 | 
[V:1] G2G2A4 | 
[V:2] e4f4- | 
[V:3] z8 | 
[V:4] z8 | 
[V:1] z2A2c3d | 
[V:2] f4f4 | 
[V:3] z8 | 
[V:4] z8 | 
[V:1] e4f4- | 
[V:2] e2a4d2- | 
[V:3] z8 | 
[V:4] z8 | 
[V:1] f4f4 | 
[V:2] d2a4f2 | 
[V:3] z8 | 
[V:4] z8 | 
[V:1] e4e2e2 | 
[V:2] g2e4g2 | 
[V:3] z8 | 
[V:4] z8 | 
[V:1] d3cd4 | 
[V:2] f3ef4 | 
[V:3] z8 | 
[V:4] z8 | 
[V:1] e8 | 
[V:2] e3dc2A2 | 
[V:3] c8 | 
[V:4] z8 | 
[V:1] z8 | 
[V:2] B4A4 | 
[V:3] G2G2A4 | 
[V:4] z8 | 
[V:1] z8 | 
[V:2] z8 | 
[V:3] z2A2c3d | 
[V:4] F,8 | 
[V:1] z8 | 
[V:2] z8 | 
[V:3] e4f4- | 
[V:4] C,2C,2D,4 | 
[V:1] z8 | 
[V:2] z8 | 
[V:3] f4f4 | 
[V:4] z2D,2F,3G, | 
[V:1] z8 | 
[V:2] z8 | 
[V:3] e8 | 
[V:4] A,2G,2A,2E,2 | 
[V:1] z8 | 
[V:2] a4a2a2 | 
[V:3] z2A2c3d | 
[V:4] F,8 | 
[V:1] e4e2e2 | 
[V:2] g3fg4 | 
[V:3] e8 | 
[V:4] E,8 | 
[V:1] d2c2dcBA | 
[V:2] a4d4 | 
[V:3] f8 | 
[V:4] z8 | 
[V:1] G4z4 | 
[V:2] z8 | 
[V:3] e2e2e2e2 | 
[V:4] E,4E,2E,2 | 
[V:1] z2A2A2A2 | 
[V:2] z2f2f2f2 | 
[V:3] d3cd4 | 
[V:4] G,2A,2F,4 | 
[V:1] c2BGB2c2 | 
[V:2] g3fg2a2 | 
[V:3] e4z2A2 | 
[V:4] E,4z2F,2- | 
[V:1] dcBAG4 | 
[V:2] d3ee4 | 
[V:3] A2A2c2BG | 
[V:4] F,2F,2E,4 | 
[V:1] z8 | 
[V:2] z8 | 
[V:3] B2c2dcBA | 
[V:4] E,3E,D,2D,2 | 
[V:1] z2c2B2e2- | 
[V:2] e4e2e2 | 
[V:3] G8 | 
[V:4] E,8 | 
[V:1] e2d2B2c2- | 
[V:2] f4d2e2 | 
[V:3] z8 | 
[V:4] z8 | 
[V:1] cBd3cBA | 
[V:2] f4g3f | 
[V:3] z8 | 
[V:4] z8 | 
[V:1] G8 | 
[V:2] e8 | 
[V:3] z2c2B2e2- | 
[V:4] E,4E,2E,2 | 
[V:1] z8 | 
[V:2] z8 | 
[V:3] e2d2B2c2- | 
[V:4] F,4D,2E,2 | 
[V:1] z4B3B | 
[V:2] z4z2e2- | 
[V:3] cBd3cBA | 
[V:4] F,4G,3F, | 
[V:1] B2B2B2GA | 
[V:2] eee2e2e2- | 
[V:3] G4z4 | 
[V:4] E,4z4 | 
[V:1] B2c3BBA | 
[V:2] edefg4- | 
[V:3] z4z2B2- | 
[V:4] z4E,3E, | 
[V:1] G4z4 | 
[V:2] g2e2e4 | 
[V:3] BBB2B2B2- | 
[V:4] E,2E,2E,2E,D, | 
[V:1] z8 | 
[V:2] z8 | 
[V:3] B2G2B2c2- | 
[V:4] E,F,G,4E,2 | 
[V:1] z8 | 
[V:2] z2f2g2e2 | 
[V:3] cBBAG4 | 
[V:4] F,4E,4 | 
[V:1] z2c2d2B2 | 
[V:2] f2a2g3f | 
[V:3] z8 | 
[V:4] z8 | 
[V:1] c2e3Bdc | 
[V:2] e4g4- | 
[V:3] z2c2d2Bc | 
[V:4] z2A,2B,2G,2- | 
[V:1] BAc4BA | 
[V:2] g4g2g2- | 
[V:3] d2e4e2 | 
[V:4] G,F,E,D,C,2G,2- | 
[V:1] GFA4^G2 | 
[V:2] gfd2e4 | 
[V:3] dcBAB4 | 
[V:4] G,D,F,2E,4 | 
[V:1] A8 | 
[V:2] z2c2d2f2- | 
[V:3] A8- | 
[V:4] z2F,2F,2D,E, | 
[V:1] z8 | 
[V:2] f2edc2d2- | 
[V:3] A8 | 
[V:4] F,D,F,G,A,2D,2- | 
[V:1] z8 | 
[V:2] d2d2d2d2- | 
[V:3] z8 | 
[V:4] D,E,F,D,F,2G,2- | 
[V:1] z8 | 
[V:2] defdf2g2 | 
[V:3] z8 | 
[V:4] G,2A,2_B,4 | 
[V:1] z8 | 
[V:2] a8 | 
[V:3] z2A2A2A2- | 
[V:4] A,4z4 | 
[V:1] z8 | 
[V:2] z8 | 
[V:3] ABcAc2d2 | 
[V:4] F,4F,2F,2 | 
[V:1] z2A2A2A2- | 
[V:2] z8 | 
[V:3] e8 | 
[V:4] E,2A,4A,2 | 
[V:1] ABcAc2d2 | 
[V:2] a8 | 
[V:3] f8 | 
[V:4] F,3G,A,2B,2 | 
[V:1] e4z2e2- | 
[V:2] g4c2g2- | 
[V:3] efgef2e2- | 
[V:4] C4A,2G,2 | 
[V:1] efgef2e2- | 
[V:2] g2g2a2a2- | 
[V:3] e4d2cB | 
[V:4] E,4z2A,2- | 
[V:1] e2d4^c2 | 
[V:2] a2g2a4 | 
[V:3] c2d2e4 | 
[V:4] A,CB,2A,4 | 
[V:1] d8 | 
[V:2] z2f2f2f2- | 
[V:3] d8- | 
[V:4] D,4z2D,2 | 
[V:1] z2A4A2- | 
[V:2] fed2f4 | 
[V:3] d8 | 
[V:4] D,2D,3E,F,G, | 
[V:1] ABc2A2c2- | 
[V:2] e4edcB | 
[V:3] z8 | 
[V:4] A,8 | 
[V:1] cBA3GFE | 
[V:2] A2d4c2 | 
[V:3] z8 | 
[V:4] F,3G,A,4 | 
[V:1] F8 | 
[V:2] d3cA4 | 
[V:3] z2d2d2d2- | 
[V:4] D,8 | 
[V:1] A4F2D2 | 
[V:2] z8 | 
[V:3] def2d2f2- | 
[V:4] z8 | 
[V:1] F6E2 | 
[V:2] z8 | 
[V:3] fedcd4 | 
[V:4] D,4F,2G,2 | 
[V:1] E8 | 
[V:2] z2a4a2 | 
[V:3] c8- | 
[V:4] A,8 | 
[V:1] z8 | 
[V:2] g2e3fge | 
[V:3] c8 | 
[V:4] z8 | 
[V:1] z2e4e2 | 
[V:2] f2e3fg2- | 
[V:3] z8 | 
[V:4] A,4G,2E,2 | 
[V:1] d2B3cdB | 
[V:2] gfd2e2d2 | 
[V:3] z8 | 
[V:4] G,8 | 
[V:1] c2B3GA2 | 
[V:2] z8 | 
[V:3] e4e2d2 | 
[V:4] A,2G,2E,2F,2 | 
[V:1] B4z2e2- | 
[V:2] g3ab2a2- | 
[V:3] B3cdBc2 | 
[V:4] G,6A,2 | 
[V:1] e2e2c2d2- | 
[V:2] a2g2a2f2 | 
[V:3] B4z4 | 
[V:4] E,4z4 | 
[V:1] dcBAc3d | 
[V:2] g3feda2- | 
[V:3] z4z2e2- | 
[V:4] z4A,4 | 
[V:1] B4A3A | 
[V:2] a2g2a2f2 | 
[V:3] e2e2c2d2- | 
[V:4] E,2E,2F,2D,2 | 
[V:1] B2Bc2AA2- | 
[V:2] g3ae2f2 | 
[V:3] dcBAc3d | 
[V:4] G,3F,A,3D, | 
[V:1] A2^G2A4 ||  
[V:2] e4e4 ||  
[V:3] B4A4 ||  
[V:4] E,4A,,4 ||  
[V:1]  [K:C] [K:clef=treble][M:2/1]c8 | 
[V:2]  [K:C] [K:clef=treble-8][M:2/1]z8 | 
[V:3]  [K:C] [K:clef=treble-8][M:2/1]z8 | 
[V:4]  [K:C] [K:clef=bass][M:2/1]z8 | 
[V:1] G4A4 | 
[V:2] z8 | 
[V:3] z8 | 
[V:4] z8 | 
[V:1] A4z2A2- | 
[V:2] z4f4- | 
[V:3] z8 | 
[V:4] z8 | 
[V:1] A2c3de2 | 
[V:2] f4c4 | 
[V:3] z8 | 
[V:4] z8 | 
[V:1] f6ed | 
[V:2] d4d4 | 
[V:3] z8 | 
[V:4] z8 | 
[V:1] e2d2f4- | 
[V:2] z2d3efg | 
[V:3] z8 | 
[V:4] z8 | 
[V:1] f2e2e4 | 
[V:2] a4a4 | 
[V:3] z8 | 
[V:4] z8 | 
[V:1] z2d4B2 | 
[V:2] _b6ag | 
[V:3] z8 | 
[V:4] z8 | 
[V:1] c2A2c2B2 | 
[V:2] a2f2a2g2 | 
[V:3] z8 | 
[V:4] z8 | 
[V:1] G2B2A2F2 | 
[V:2] e2g2f2d2 | 
[V:3] z8 | 
[V:4] z8 | 
[V:1] A2G4c2- | 
[V:2] f2e2c2e2 | 
[V:3] c8 | 
[V:4] z8 | 
[V:1] c2B2c4 | 
[V:2] d4c4 | 
[V:3] G4A4 | 
[V:4] z8 | 
[V:1] c8 | 
[V:2] c8 | 
[V:3] A4z2A2- | 
[V:4] z4F,4- | 
[V:1] z8 | 
[V:2] z8 | 
[V:3] A2c3de2 | 
[V:4] F,4C,4 | 
[V:1] z8 | 
[V:2] z8 | 
[V:3] f8- | 
[V:4] D,2F,3G,A,2 | 
[V:1] z8 | 
[V:2] z8 | 
[V:3] f8 | 
[V:4] _B,2A,2F,2A,2 | 
[V:1] z8 | 
[V:2] z8 | 
[V:3] e2e4d2 | 
[V:4] G,2E,2G,2F,2 | 
[V:1] z8 | 
[V:2] z2c2c2B2- | 
[V:3] e8- | 
[V:4] E,2A,4G,2 | 
[V:1] z8 | 
[V:2] B2A4^G2 | 
[V:3] e8 | 
[V:4] A,4E,4 | 
[V:1] z4c4- | 
[V:2] A8 | 
[V:3] z8 | 
[V:4] z4A,4- | 
[V:1] c4c4 | 
[V:2] a8 | 
[V:3] e8 | 
[V:4] A,4A,4 | 
[V:1] c6BA | 
[V:2] a4a4- | 
[V:3] e4e4- | 
[V:4] A,8 | 
[V:1] c3de4 | 
[V:2] a4a4 | 
[V:3] e4e4 | 
[V:4] A,4A,4 | 
[V:1] z2A2A2A2 | 
[V:2] a4f4 | 
[V:3] d2c2d4 | 
[V:4] F,4F,4 | 
[V:1] c2B2GABc | 
[V:2] g4g2e2- | 
[V:3] e8- | 
[V:4] E,4E,3F, | 
[V:1] B2A4^G2 | 
[V:2] e2dcB4 | 
[V:3] e8- | 
[V:4] G,2A,2E,4 | 
[V:1] A4z4 | 
[V:2] A4z2A2 | 
[V:3] e8- | 
[V:4] z2A,2A,2C2- | 
[V:1] z4z2e2 | 
[V:2] A2c4BA | 
[V:3] e8 | 
[V:4] CB,A,4G,F, | 
[V:1] e2g3fe2- | 
[V:2] c2B4e2 | 
[V:3] z8 | 
[V:4] E,8 | 
[V:1] e2dcBA3 | 
[V:2] e2g3fe2- | 
[V:3] z8 | 
[V:4] z4z2A,2- | 
[V:1] c2BAG4- | 
[V:2] e2dce2dc | 
[V:3] z8 | 
[V:4] A,2A,2E,4- | 
[V:1] G4z4 | 
[V:2] B4A4 | 
[V:3] z8 | 
[V:4] E,4z2A,2 | 
[V:1] z8 | 
[V:2] z2A2A2c2- | 
[V:3] e8- | 
[V:4] A,2C3B,A,2- | 
[V:1] z2e2e2g2- | 
[V:2] c2BAc2B2- | 
[V:3] e8- | 
[V:4] A,2G,F,E,3F, | 
[V:1] gfe4dc | 
[V:2] B2e2e2g2- | 
[V:3] e8 | 
[V:4] G,2A,2E,4 | 
[V:1] BABcd2e2- | 
[V:2] g2e2f2e2 | 
[V:3] e4d2c2 | 
[V:4] z8 | 
[V:1] e2d4^c2 | 
[V:2] f3de4 | 
[V:3] d4A4- | 
[V:4] z4A,4 | 
[V:1] d8 | 
[V:2] d4f4 | 
[V:3] A4d4 | 
[V:4] D,8 | 
[V:1] B4B2B2- | 
[V:2] g2g4g2- | 
[V:3] d2d4d2- | 
[V:4] G,4G,2G,2- | 
[V:1] B2B2A2c2- | 
[V:2] g2g2e2a2- | 
[V:3] d2B2cBcd | 
[V:4] G,2G,2A,G,A,B, | 
[V:1] c2B4A2 | 
[V:2] agg4^f2 | 
[V:3] e2d4c2 | 
[V:4] C2G,2A,4 | 
[V:1] B8 | 
[V:2] g4z2d2 | 
[V:3] d8- | 
[V:4] G,8 | 
[V:1] z2B2d4- | 
[V:2] g6g2 | 
[V:3] d4z2B2 | 
[V:4] G,4G,2G,2- | 
[V:1] d2d2c2c2 | 
[V:2] g2g2c4 | 
[V:3] d2d2e4- | 
[V:4] G,A,B,G,C2A,2 | 
[V:1] B4z2B2 | 
[V:2] z2g4fe | 
[V:3] e2d2d4- | 
[V:4] G,8 | 
[V:1] B2d3cBA | 
[V:2] d2G2g4- | 
[V:3] d2d2d2d2 | 
[V:4] z2G,2G,4 | 
[V:1] G2A2B4 | 
[V:2] g2fed2G2 | 
[V:3] e2g3fed | 
[V:4] E,4G,4 | 
[V:1] z2B4G2 | 
[V:2] g4g4 | 
[V:3] e2d4^c2 | 
[V:4] G,F,E,D,E,4 | 
[V:1] B2A4A2 | 
[V:2] f8 | 
[V:3] d8- | 
[V:4] D,8 | 
[V:1] B2d3cBA | 
[V:2] z8 | 
[V:3] d8 | 
[V:4] z2G,2B,3C | 
[V:1] B2A4^G2 | 
[V:2] z8 | 
[V:3] z4d4 | 
[V:4] DCB,A,B,4 | 
[V:1] A4z4 | 
[V:2] z4g4 | 
[V:3] c2A2BABc | 
[V:4] A,2F,2E,4 | 
[V:1] z8 | 
[V:2] f2d2edef | 
[V:3] d3cABc2- | 
[V:4] D,4z4 | 
[V:1] z4d4 | 
[V:2] g2a4^g2 | 
[V:3] c2BAB4 | 
[V:4] z8 | 
[V:1] c2c2B2d2- | 
[V:2] a4z4 | 
[V:3] A4z4 | 
[V:4] A,4G,2G,2 | 
[V:1] dcA3BcA | 
[V:2] z4a4 | 
[V:3] d4c2c2 | 
[V:4] D,3E,F,G,A,F, | 
[V:1] B4A4 | 
[V:2] g2g2fgag | 
[V:3] B2d3cA2- | 
[V:4] G,2G,2D,4 | 
[V:1] z4d4 | 
[V:2] e2a4^g2 | 
[V:3] ABcAB4 | 
[V:4] z8 | 
[V:1] c2A2BABc | 
[V:2] a4z4 | 
[V:3] A4z4 | 
[V:4] A,4G,2G,2 | 
[V:1] d3cA2c2 | 
[V:2] z4a4 | 
[V:3] d4c2A2 | 
[V:4] D,3E,F,G,A,F, | 
[V:1] B4A2c2- | 
[V:2] g2g2f2ec | 
[V:3] B2d3cA2- | 
[V:4] G,4D,2A,2- | 
[V:1] cBA2G2B2 | 
[V:2] e2f2g3f | 
[V:3] ABcAB4 | 
[V:4] A,G,F,2E,4 | 
[V:1] c2e3dc2 | 
[V:2] a4e4 | 
[V:3] A2c3BA2 | 
[V:4] z8 | 
[V:1] B2d2c2B2- | 
[V:2] z2g2e2g2- | 
[V:3] G2B2c2e2- | 
[V:4] z2G,2A,2G,2 | 
[V:1] B2A2d3c | 
[V:2] g2f2d3e | 
[V:3] edc2B2A2 | 
[V:4] E,2F,2G,2F,2 | 
[V:1] BAA4^G2 | 
[V:2] f2d2e4 | 
[V:3] dcBAB4 | 
[V:4] D,2F,2E,4 | 
[V:1] A8 |]  
[V:2] e8 |]  
[V:3] A8 |]  
[V:4] A,,8 |]  



